X:131
T:Trip to Oatlands THO4.131
M:4/4
L:1/8
Z:vmp. Peter Dunk 2010/11.from a transcription by Fynn Titford-Mock 2007
B:Thompson's Compleat Collection of 200 Favourite Country Dances Volume IV.
Q:3/8=110
K:F
A/B/|c>dc cAF|c>dc cAF|fed cBA|BGG G2 A/B/|\
c>dc cAF|c>dc cAF|fed c>dB|AFF F2:|
|:B|Tf3Tg3|agf edc|fed cBA|BGG G2 c|\
fef gfg|agf edc|fed cdB|AFF F2:|
